X:1
T:4 Lieder
T:Comitat: Nun zu guter Letzt
T:Felix Mendelssohn Bartholdy
T:Hoffmann von Fallersleben
T:Comitat: Nun zu guter Letzt
T:Nr. 4 aus Vier Lieder, Op. 76
T:CPDL - Creative Commons Attribution Non Commercial 3.0
T:CPDL - Creative Commons Attribution Non Commercial 3.0
C:Felix Mendelssohn Bartholdy
Z:Hoffmann von Fallersleben
Z:CPDL - Creative Commons Attribution Non Commercial 3.0
%%score [ ( 1 2 ) ( 3 4 ) ]
L:1/8
Q:1/4=100
M:4/4
K:F
V:1 treble-8 nm="Tenor"
V:2 treble-8 
V:3 bass nm="Bass"
V:4 bass 
V:1
!f!"^Allegro moderato" F>A A>c | c4 A>c c>f | f4 e2 d2 | c3 c d2 c2 | B>A A2!f! F>A A>c | %5
w: 1.~Nun zu gu- ter|Letzt * ben wir dir|jetzt auf die|Wand- rung das Ge-|lei- * te. Wand- re mu- tig|
w: 2.~Bru- der, nun A-|de, Schei- den tut zwar|weh, Schei- den|ist ein bit- tres|Lei- * den. Wer es gut ge-|
w: 3.~Bru- der, nimm die|Hand jetzt zum Un- ter-|pfand, dass wir|treu ge- sinnt ver-|blei- * ben; red- lich son- der|
 c4 A>c c>f | f4 e2 d2 | e3 e e2 d2 | d>c c2 c2 f2 | f3 f e2 f2 | g>e c2 c2 f2 | f3 f e2 f2 | %12
w: fort, und an je- dem|Ort sei dir|Glück und Heil zur|Sei- * te! Wan- dern|müs- sen wir auf|Er- * den, un- ter|Freu- den und Be-|
w: meint, bleibt mit uns ver-|eint, so, als|gäb es gar kein|Schei- * den. Die- ser|Trost mag dich be-|glei- * ten, man- che|Freu- de dir be-|
w: Wank, fern von Neid und|Zank stets in|un- serm Tun und|Trei- * ben. End- lich|wird's ein- mal ge-|sche- * hen, dass auch|wir uns wie- der-|
 g>e c2!f! A>c c>_e | _e4 B>d d>g | g4 | f2 d2 | c3 c d2 c2 | B>A A2!p! F2 G2 | %18
w: schwer- * den geht hin- ab, hin-|auf un- ser Le- bens-|lauf;|das ist|un- ser Los auf|Er- * den, das ist|
w: rei- * ten. Wenn du bist im|Glück, denk an uns zu-|rück,|denk' an|die ver- gang- nen|Zei- * ten denk' an|
w: se- * hen und uns wie- der|freu'n und den Bund er-|neu'n.|Le- be|wohl, auf Wie- der-|se- * hen, le- be|
 A2!<(! F2 G2 A2!<)! |!>(! c8!>)! | !fermata!c4 |] %21
w: un- ser Los auf|Er-|den.|
w: die ver- gang- nen|Zei-|ten.|
w: wohl, auf Wie- der-|se-|hen!|
V:2
 F>A A>c | c4 A>A A>d | d4 c2 =B2 | c3 c _B2 A2 | G>F F2 F>A A>c | c4 A>c c>=B | =B4 c2 d2 | %7
w: |* ge- * * *||||||
 c3 c =B2 B2 | =B>A A2 c2 c2 | c3 c c2 d2 | G2 G2 A2 F2 | c3 c c2 d2 | G2 G2 A>A A>c | c4 d>d d>d | %14
w: |||||||
 d4 | d2 G2 | A3 A B2 A2 | G>F F2 F2 G2 | A2 F2 E2 F2 | G8 | A4 |] %21
w: |||||||
V:3
!f! F,>A, A,>C | C4 A,>A, A,>A, | A,4 G,2 G,2 | G,3 G, G,2 A,2 | E,>F, F,2!f! F,>F, F,>A, | %5
 A,4 A,>A, A,>A, | A,4 A,2 A,2 | A,3 A, ^G,2 G,2 | ^G,>A, A,2 A,2 A,2 | _B,3 B, B,2 B,2 | %10
 B,2 B,2 A,2 C2 | B,3 B, B,2 B,2 | B,2 B,2!f! F,>F, F,>F, | F,4 F,>B, B,>B, | B,4 | B,2 F,2 | %16
 F,3 A, G,2 A,2 | E,>F, F,2!p! F,2 G,2 | A,2!<(! F,2 E,2 F,2!<)! |!>(! (F,4 E,4)!>)! | %20
 !fermata!F,4 |] %21
V:4
 F,>A, A,>C | C4 A,>F, F,>D, | D,4 G,2 F,2 | E,3 E, E,2 F,2 | C,2 F,,2 F,>F, F,>F, | %5
 F,4 F,>E, E,>D, | D,4 E,2 F,2 | E,3 E, E,2 E,2 | E,2 A,,2 [A,,A,]2 [A,,A,]2 | %9
 [G,,G,]3 [G,,G,] [G,,G,]2 [F,,F,]2 | [E,,E,]2 [E,,E,]2 [F,,F,]2 [A,,A,]2 | %11
 [G,,G,]3 [G,,G,] [G,,G,]2 [F,,F,]2 | [E,,E,]2 E,2 F,>C, C,>A,, | A,,4 B,,>B,, B,,>B, | B,4 | %15
 B,,2 B,,2 | C,3 F, E,2 F,2 | C,2 F,,2 F,2 G,2 | A,2 F,2 E,2 D,2 | C,8 | F,,4 |] %21

